X:708
T:
N:Rundarium (rundál),
S:efter »Florsen» i Burs.
H:Spelades, då skålar druckos vid bröllop.
O:Gotland, Burs
R:marsch
M:2/4
L:1/16
K:D
(f2f2) (fgfe)|.e2.d2 (defg)|(f2a2) (abag)|(f2e2) [Ae]4|(A2e2) e2ef|
(edcB) (ABcd)|c2(ce) d2(df)|(edcB) A3g|(fgag) (fedc)|(c2d2)d4||
Lc4 Ld3(f|e)d(cB) (ABcd)|c2ce d2df|(edcB) A3g|(fgag) (fedc)|(c2d2) d4|]

